svg/sort_alphabetical_ascending.svg

<?xml version="1.0" encoding="UTF-8"?><!DOCTYPE svg PUBLIC "-//W3C//DTD SVG 1.1//EN" "http://www.w3.org/Graphics/SVG/1.1/DTD/svg11.dtd"><svg xmlns="http://www.w3.org/2000/svg" xmlns:xlink="http://www.w3.org/1999/xlink" version="1.1" id="mdi-sort-alphabetical-ascending" width="24" height="24" viewBox="0 0 24 24"><path d="M19 17H22L18 21L14 17H17V3H19M11 13V15L7.67 19H11V21H5V19L8.33 15H5V13M9 3H7C5.9 3 5 3.9 5 5V11H7V9H9V11H11V5C11 3.9 10.11 3 9 3M9 7H7V5H9Z" /></svg>

<svg xmlns="http://www.w3.org/2000/svg" viewBox="0 0 24 24"><path d="M19 17h3l-4 4-4-4h3V3h2m-8 10v2l-3.33 4H11v2H5v-2l3.33-4H5v-2M9 3H7c-1.1 0-2 .9-2 2v6h2V9h2v2h2V5a2 2 0 0 0-2-2m0 4H7V5h2Z"/></svg>
